X:66
T:score156
L:1/8
Q:1/4=96
M:6/8
I:linebreak $
K:Gmin
!mf! Bc | Md3- ded | d3 z Bc | Md3- dgd |$ d3- dAB | Mc3- cdc | c3- cdc | c3- cBA |$ PBAG z3 |] %9
